public/assets/dive-icon-4.svg

<svg width="52" height="53" viewBox="0 0 52 53" fill="none" xmlns="http://www.w3.org/2000/svg">
<path d="M8.37012 44.2015L13.988 45.3822L15.1657 50.9999L32.503 33.6579L29.5524 30.6904L21.5921 30.9037L8.37012 44.2015Z" fill="#CEE098"/>
<path d="M50.3186 25.6841H40.4658L25.6736 40.4825L10.8788 25.6841H1L25.6736 50.3681L50.3472 25.6841H50.3186Z" fill="#006D68"/>
<path d="M1.00281 25.684L3.49331 23.2133L25.6972 1L47.9011 23.2133L50.3448 25.684H40.4894L25.6972 10.8856L10.905 25.684H1.00281Z" fill="#AAC853"/>
<path d="M42.9771 44.2016L37.3618 45.3823L36.1815 51L18.8468 33.658L23.0895 29.3901H28.2473L42.9771 44.2016Z" fill="#AAC853"/>
<path d="M34.5593 26.7372C34.8531 26.7372 35.0923 26.4979 35.0923 26.204C35.0923 25.9101 34.8531 25.6709 34.5593 25.6709H31.5645V23.6189H34.5593C34.8531 23.6189 35.0923 23.3796 35.0923 23.0857C35.0923 22.7918 34.8531 22.5525 34.5593 22.5525H31.5645V22.1988C31.5645 21.2157 30.8132 20.4069 29.8539 20.3185V17.312C29.8539 17.0181 29.6147 16.7788 29.321 16.7788C29.0272 16.7788 28.788 17.0181 28.788 17.312V20.3081H26.2039V17.312C26.2039 17.0181 25.9648 16.7788 25.671 16.7788C25.3772 16.7788 25.1381 17.0181 25.1381 17.312V20.3081H22.554V17.312C22.554 17.0181 22.3148 16.7788 22.0211 16.7788C21.7273 16.7788 21.4881 17.0181 21.4881 17.312V20.3185C20.5288 20.4095 19.7775 21.2157 19.7775 22.1988V22.5525H16.7827C16.4889 22.5525 16.2498 22.7918 16.2498 23.0857C16.2498 23.3796 16.4889 23.6189 16.7827 23.6189H19.7775V25.6709H16.7827C16.4889 25.6709 16.2498 25.9101 16.2498 26.204C16.2498 26.4979 16.4889 26.7372 16.7827 26.7372H19.7775V28.7892H16.7827C16.4889 28.7892 16.2498 29.0285 16.2498 29.3224C16.2498 29.6163 16.4889 29.8555 16.7827 29.8555H19.7775V30.2092C19.7775 31.1923 20.5288 32.0012 21.4881 32.0896V35.0961C21.4881 35.39 21.7273 35.6293 22.0211 35.6293C22.3148 35.6293 22.554 35.39 22.554 35.0961V32.1H25.1381V35.0961C25.1381 35.39 25.3772 35.6293 25.671 35.6293C25.9648 35.6293 26.2039 35.39 26.2039 35.0961V32.1H28.788V35.0961C28.788 35.39 29.0272 35.6293 29.321 35.6293C29.6147 35.6293 29.8539 35.39 29.8539 35.0961V32.0896C30.8132 31.9986 31.5645 31.1923 31.5645 30.2092V29.8555H34.5593C34.8531 29.8555 35.0923 29.6163 35.0923 29.3224C35.0923 29.0285 34.8531 28.7892 34.5593 28.7892H31.5645V26.7372H34.5593ZM28.2525 27.957C28.2525 28.4147 27.8833 28.784 27.4258 28.784H23.9214C23.4639 28.784 23.0947 28.4147 23.0947 27.957V24.4511C23.0947 23.9934 23.4639 23.6241 23.9214 23.6241H27.4258C27.8833 23.6241 28.2525 23.996 28.2525 24.4511V27.957Z" fill="#3C3C3C"/>
</svg>

<svg xmlns="http://www.w3.org/2000/svg" width="52" height="53" fill="none" viewBox="0 0 52 53"><path fill="#cee098" d="m8.37 44.202 5.618 1.18L15.166 51l17.337-17.342-2.95-2.968-7.96.214z"/><path fill="#006d68" d="M50.319 25.684h-9.853L25.674 40.483 10.879 25.684H1l24.674 24.684 24.673-24.684z"/><path fill="#aac853" d="m1.003 25.684 2.49-2.47L25.697 1l22.204 22.213 2.444 2.471h-9.856L25.697 10.886 10.905 25.684zm41.974 18.518-5.615 1.18L36.182 51 18.847 33.658l4.243-4.268h5.157z"/><path fill="#3c3c3c" d="M34.56 26.737a.534.534 0 0 0 0-1.066h-2.996v-2.052h2.995a.534.534 0 0 0 0-1.067h-2.994V22.2c0-.983-.752-1.792-1.711-1.88v-3.007a.534.534 0 0 0-1.066 0v2.996h-2.584v-2.996a.534.534 0 0 0-1.066 0v2.996h-2.584v-2.996a.534.534 0 0 0-1.066 0v3.006a1.89 1.89 0 0 0-1.71 1.88v.354h-2.995a.534.534 0 0 0 0 1.067h2.994v2.052h-2.994a.534.534 0 0 0 0 1.066h2.994v2.052h-2.994a.534.534 0 0 0 0 1.066h2.994v.354c0 .983.752 1.792 1.711 1.88v3.007a.534.534 0 0 0 1.066 0V32.1h2.584v2.996a.534.534 0 0 0 1.066 0V32.1h2.584v2.996a.534.534 0 0 0 1.066 0V32.09a1.89 1.89 0 0 0 1.71-1.88v-.355h2.995a.534.534 0 0 0 0-1.066h-2.994v-2.052zm-6.308 1.22a.825.825 0 0 1-.826.827H23.92a.826.826 0 0 1-.826-.827v-3.506c0-.458.369-.827.826-.827h3.505c.457 0 .827.372.827.827z"/></svg>
